svg/u1f3ad.svg

<svg viewBox="0 0 128 128" xmlns="http://www.w3.org/2000/svg">
  <g>
    <g>
      <path d="M110.28,61.32l2.63,8.84c0,0,7.24-1.6,7.62,3.2c0.38,4.8-6.77,8-6.77,8l2.26,10.63 c0,0,7.9-6.4,8-15.61c0,0,0.66-11.29-6.11-13.92C113.67,60.85,110.28,61.32,110.28,61.32z" fill="#F45125"/>
      <path d="M68.71,94.99c0,0-11.1-4.7-16.46,1.98c-0.75,0.94-1.41,1.88-2.16,2.82 c-0.56,0.75-1.13,1.5-1.69,2.16c-0.47,0.56-1.03,1.13-1.69,1.5c-0.66,0.38-1.32,0.66-2.07,0.85c-0.94,0.19-1.88,0.19-2.82,0.09 c-1.32-0.09-2.63-0.38-3.95-0.66c-0.47-0.09-0.85-0.19-1.22-0.28c-0.09,0-0.19-0.09-0.28-0.09s-0.19-0.09-0.28-0.09 c-0.38,0.09,0.19,0.75,0.38,0.94c0.28,0.28,0.56,0.66,0.85,0.94c0.85,0.75,1.69,1.5,2.73,1.98c1.32,0.66,2.73,1.03,4.14,1.13 c0.09,0,0.38,0,0.47,0.09c0.19,0.19-0.28,0.47-0.47,0.56c-0.28,0.19-0.47,0.28-0.75,0.38c-0.85,0.38-1.79,0.56-2.63,0.75 c-0.85,0.19-1.69,0.28-2.45,0.28c-0.47,0-0.85,0.09-1.22,0.09c-0.28,0-0.56-0.09-0.85,0s0.09,0.47,0.28,0.56 c0.38,0.19,0.75,0.47,1.13,0.66c1.13,0.56,2.26,1.03,3.39,1.32c1.5,0.38,3.1,0.56,4.61,0.38c1.32-0.19,2.63-0.56,3.86-1.03 c6.77-3.1,6.21-9.59,12.42-10.16c4.61-0.38,11.1,2.07,11.1,2.07L68.71,94.99z" fill="#F45125"/>
      <path d="M19.79,38.28c0,0-12.13,1.98-15.24,12.79C0.61,64.9,20.26,69.5,20.26,69.5l1.22-9.41 c0,0-13.07-1.32-12.32-6.3c0.94-6.21,11.85-5.64,11.85-5.64L19.79,38.28z" fill="#F45125"/>
      <path d="M20.73,70.92c0,0-1.88,0.56-4.61,2.54c-1.88,1.32-4.42,3.01-6.87,5.93 c-1.22,1.41-2.16,3.1-2.82,4.89c-0.47,1.22-0.66,2.45-0.66,3.76c0,0.28,0,0.56,0,0.85c0,0.09,0,0.85,0.28,0.66 c0.09-0.09,0.19-0.38,0.28-0.47c0.19-0.47,0.47-0.85,0.75-1.22c0.85-1.13,1.88-2.16,3.01-3.01c0.38-0.28,0.75-0.47,1.13-0.66 c0.28-0.28,0.75-0.66,0.94-0.28c0.09,0.19-0.09,0.47-0.19,0.66c-0.09,0.28-0.19,0.66-0.19,0.94c-0.38,1.5-0.56,3.01-0.75,4.51 c-0.09,0.85-0.09,1.69,0,2.45c0,0.38,0.09,0.85,0.09,1.22c0,0.19,0.09,0.38,0.09,0.56c0,0.19,0.19,0.47,0.38,0.19 c0.09-0.09,0.09-0.19,0.19-0.38c0.19-0.28,0.28-0.66,0.47-0.94c0.47-0.85,0.94-1.69,1.5-2.63c0.66-1.13,1.41-2.16,2.16-3.1 c0.85-1.13,1.88-2.26,2.92-3.2c1.13-1.03,2.35-2.07,3.67-2.92c0.75-0.47,1.6-0.94,2.45-1.32L20.73,70.92z" fill="#F45125"/>
      <g>
        <path d="M116.4,79.29c-1.13-5.55-2.73-11.01-4.51-16.46c-1.5-4.61-3.1-9.31-5.83-13.36 c-1.22-1.79-3.01-3.01-5.27-3.86c-4.33-1.69-9.97-1.98-13.73-1.98c-5.64,0-11.48,1.22-16.74,3.67 c-1.88,5.64-7.05,19.94-14.86,26.34c0.47,2.63,1.03,5.36,1.79,8c1.32,4.61,3.01,9.22,4.61,13.83c1.5,4.42,3.29,8.84,6.58,12.23 c0.85,0.94,1.88,1.69,2.82,2.45c2.26,1.88,4.99,3.01,7.71,3.95c2.54,0.85,5.17,1.5,7.81,2.07c4.7,1.03,11.48,2.82,16.08,0.66 c2.54-1.13,4.61-2.92,6.3-5.08c1.79-2.26,3.2-4.8,4.42-7.43c1.88-3.95,3.86-8.37,4.14-12.89 C117.99,87.38,117.24,83.24,116.4,79.29z" fill="#FCC21B"/>
        <path d="M77.64,33.57c-0.28-1.03-1.03-2.07-1.6-3.01c-6.3-11.01-20.04-16.27-32.26-15.52 c-3.76,0.28-9.31,0.85-13.54,2.73c-2.07,0.94-3.86,2.35-4.99,4.14c-2.54,4.23-3.76,8.94-5.08,13.64 C18.67,41,17.35,46.55,16.5,52.2c-0.75,4.89-1.41,10.25-0.09,15.14c1.03,3.86,3.29,9.22,5.74,12.32 c2.73,3.39,6.58,7.34,10.72,8.84c0.75,0.28,1.6,0.47,2.45,0.66c1.6,0.28,3.29,0.47,4.89,0.19c0.94-0.19,1.98-0.28,2.92-0.56 c1.88-0.47,3.67-1.13,5.46-1.79c7.52-3.01,13.64-7.43,17.68-14.58c1.69-3.1,3.1-6.4,4.42-9.69c0.09-0.19,0.19-0.38,0.19-0.56 c1.98-5.46,3.29-11.19,4.61-16.84c0.66-2.73,1.41-5.55,1.79-8.37C77.55,35.92,77.92,34.7,77.64,33.57z" fill="#429ADF"/>
      </g>
    </g>
    <path d="M23.09,40.53c1.69-3.1,5.74-5.55,9.31-5.08c0.56,0.09,1.22,0.19,1.79,0.47 c3.57,1.5,5.74,4.99,4.89,8.56c-0.19,0.75-0.66,0.85-1.22,0.38c-1.98-1.69-3.57-3.01-6.21-3.67c-2.16-0.56-4.61-0.28-6.68,0.28 c-0.47,0.09-1.22,0.56-1.69,0.38C22.61,41.57,22.9,40.91,23.09,40.53z" fill="#193D51"/>
    <path d="M62.21,64.9c-1.03,1.6-2.45,3.01-3.86,4.33c-0.38,0.28-0.66,0.66-1.03,0.94 c-5.64,4.7-13.26,7.05-20.51,5.27c-1.98-0.47-4.14-1.5-5.74-2.73c-1.22-0.94-2.45-2.16-3.48-3.39c-1.88-2.26-3.29-4.89-4.23-7.62 c-0.47-1.41-0.75-2.73-0.94-4.23c0-0.47-0.66-5.46,0.85-4.8c0.38,0.19,0.66,0.47,0.94,0.75c0.28,0.38,0.47,0.75,0.75,1.03 c0.66,0.85,1.32,1.69,2.07,2.45c2.35,2.73,5.27,4.89,8.56,6.4c2.26,1.03,4.7,1.6,7.15,1.79c1.41,0.09,2.73,0.19,4.14,0.09 c5.08-0.28,10.25-1.79,14.86-3.76c0.38-0.19,0.85-0.47,1.32-0.47C64.66,61.04,62.5,64.52,62.21,64.9z" fill="#193D51"/>
    <path d="M67.58,51.16c0,0.47-0.19,1.13-0.75,1.03c-0.47-0.09-0.85-0.94-1.13-1.22 c-1.32-1.69-3.86-3.57-6.4-4.14c-3.01-0.75-5.27,0.56-8.28,0.85c-0.85,0.09-1.32-0.28-0.94-1.03c1.6-3.48,5.83-6.21,10.25-5.46 c0.75,0.09,1.41,0.28,2.07,0.56C66.26,43.36,67.86,47.59,67.58,51.16z" fill="#193D51"/>
    <path d="M91.84,63.86c4.23,2.73,9.69,3.48,14.58,3.2c1.41-0.09,2.26,0.09,1.88,1.69 c-0.75,3.29-3.86,5.17-6.87,5.83c-0.75,0.19-1.5,0.19-2.26,0.19c-1.41-0.09-2.82-0.66-4.04-1.5c-2.63-1.79-4.61-4.89-5.17-8 C89.68,63.67,90.25,62.83,91.84,63.86z" fill="#9B7515"/>
    <path d="M65.22,80.79C64,79.57,64.66,79,65.98,78.25c4.51-2.35,9.03-5.93,11.38-10.63 c0.85-1.79,1.79-1.41,2.45,0.28c1.13,3.1,1.03,6.87-0.38,9.88c-0.66,1.41-1.6,2.63-2.82,3.57c-0.66,0.47-1.32,0.75-2.07,1.03 C71.43,83.33,67.58,83.24,65.22,80.79z" fill="#9B7515"/>
    <path d="M110,96.41c-0.38,0-0.94-0.38-1.41-0.66c-0.47-0.28-0.94-0.66-1.22-0.85 c-1.13-0.56-2.45-1.13-3.67-1.5c-3.76-1.22-7.9-1.22-11.57,0c-2.63,0.85-5.17,2.45-7.24,4.33c-2.26,2.16-3.95,4.8-6.11,7.05 c-0.28,0.28-0.56,0.56-0.85,0.75c-0.56,0.28-1.13-0.09-1.32-0.66c-0.94-3.95,1.69-9.5,3.67-12.89c2.26-3.76,5.55-6.77,9.78-8 c2.07-0.66,4.33-0.66,6.49-0.38c6.3,0.94,12.79,5.93,14.02,11.66C110.56,95.75,110.47,96.5,110,96.41z" fill="#9B7515"/>
  </g>
</svg>

<svg viewBox="0 0 128 128" xmlns="http://www.w3.org/2000/svg">
  <defs/>
  <path d="M110.28,61.32 L112.91,70.16 C112.91,70.16 120.15,68.56 120.53,73.36 C120.91,78.16 113.76,81.36 113.76,81.36 L116.02,91.99 C116.02,91.99 123.92,85.59 124.02,76.38 C124.02,76.38 124.68,65.09 117.91,62.46 C113.67,60.85 110.28,61.32 110.28,61.32 Z" fill="#F45125"/>
  <path d="M68.71,94.99 C68.71,94.99 57.61,90.29 52.25,96.97 C51.5,97.91 50.84,98.85 50.09,99.79 C49.53,100.54 48.96,101.29 48.4,101.95 C47.93,102.51 47.37,103.08 46.71,103.45 C46.05,103.83 45.39,104.11 44.64,104.3 C43.7,104.49 42.76,104.49 41.82,104.39 C40.5,104.3 39.19,104.01 37.87,103.73 C37.4,103.64 37.02,103.54 36.65,103.45 C36.56,103.45 36.46,103.36 36.37,103.36 C36.28,103.36 36.18,103.27 36.09,103.27 C35.71,103.36 36.28,104.02 36.47,104.21 C36.75,104.49 37.03,104.87 37.32,105.15 C38.17,105.9 39.01,106.65 40.05,107.13 C41.37,107.79 42.78,108.16 44.19,108.26 C44.28,108.26 44.57,108.26 44.66,108.35 C44.85,108.54 44.38,108.82 44.19,108.91 C43.91,109.1 43.72,109.19 43.44,109.29 C42.59,109.67 41.65,109.85 40.81,110.04 C39.96,110.23 39.12,110.32 38.36,110.32 C37.89,110.32 37.51,110.41 37.14,110.41 C36.86,110.41 36.58,110.32 36.29,110.41 C36,110.5 36.38,110.88 36.57,110.97 C36.95,111.16 37.32,111.44 37.7,111.63 C38.83,112.19 39.96,112.66 41.09,112.95 C42.59,113.33 44.19,113.51 45.7,113.33 C47.02,113.14 48.33,112.77 49.56,112.3 C56.33,109.2 55.77,102.71 61.98,102.14 C66.59,101.76 73.08,104.21 73.08,104.21 L68.71,94.99 Z" fill="#F45125"/>
  <path d="M19.79,38.28 C19.79,38.28 7.66,40.26 4.55,51.07 C0.61,64.9 20.26,69.5 20.26,69.5 L21.48,60.09 C21.48,60.09 8.41,58.77 9.16,53.79 C10.1,47.58 21.01,48.15 21.01,48.15 L19.79,38.28 Z" fill="#F45125"/>
  <path d="M20.73,70.92 C20.73,70.92 18.85,71.48 16.12,73.46 C14.24,74.78 11.7,76.47 9.25,79.39 C8.03,80.8 7.09,82.49 6.43,84.28 C5.96,85.5 5.77,86.73 5.77,88.04 C5.77,88.32 5.77,88.6 5.77,88.89 C5.77,88.98 5.77,89.74 6.05,89.55 C6.14,89.46 6.24,89.17 6.33,89.08 C6.52,88.61 6.8,88.23 7.08,87.86 C7.93,86.73 8.96,85.7 10.09,84.85 C10.47,84.57 10.84,84.38 11.22,84.19 C11.5,83.91 11.97,83.53 12.16,83.91 C12.25,84.1 12.07,84.38 11.97,84.57 C11.88,84.85 11.78,85.23 11.78,85.51 C11.4,87.01 11.22,88.52 11.03,90.02 C10.94,90.87 10.94,91.71 11.03,92.47 C11.03,92.85 11.12,93.32 11.12,93.69 C11.12,93.88 11.21,94.07 11.21,94.25 C11.21,94.44 11.4,94.72 11.59,94.44 C11.68,94.35 11.68,94.25 11.78,94.06 C11.97,93.78 12.06,93.4 12.25,93.12 C12.72,92.27 13.19,91.43 13.75,90.49 C14.41,89.36 15.16,88.33 15.91,87.39 C16.76,86.26 17.79,85.13 18.83,84.19 C19.96,83.16 21.18,82.12 22.5,81.27 C23.25,80.8 24.1,80.33 24.95,79.95 L20.73,70.92 Z" fill="#F45125"/>
  <path d="M116.4,79.29 C115.27,73.74 113.67,68.28 111.89,62.83 C110.39,58.22 108.79,53.52 106.06,49.47 C104.84,47.68 103.05,46.46 100.79,45.61 C96.46,43.92 90.82,43.63 87.06,43.63 C81.42,43.63 75.58,44.85 70.32,47.3 C68.44,52.94 63.27,67.24 55.46,73.64 C55.93,76.27 56.49,79 57.25,81.64 C58.57,86.25 60.26,90.86 61.86,95.47 C63.36,99.89 65.15,104.31 68.44,107.7 C69.29,108.64 70.32,109.39 71.26,110.15 C73.52,112.03 76.25,113.16 78.97,114.1 C81.51,114.95 84.14,115.6 86.78,116.17 C91.48,117.2 98.26,118.99 102.86,116.83 C105.4,115.7 107.47,113.91 109.16,111.75 C110.95,109.49 112.36,106.95 113.58,104.32 C115.46,100.37 117.44,95.95 117.72,91.43 C117.99,87.38 117.24,83.24 116.4,79.29 Z" fill="#FCC21B"/>
  <path d="M77.64,33.57 C77.36,32.54 76.61,31.5 76.04,30.56 C69.74,19.55 56,14.29 43.78,15.04 C40.02,15.32 34.47,15.89 30.24,17.77 C28.17,18.71 26.38,20.12 25.25,21.91 C22.71,26.14 21.49,30.85 20.17,35.55 C18.67,41 17.35,46.55 16.5,52.2 C15.75,57.09 15.09,62.45 16.41,67.34 C17.44,71.2 19.7,76.56 22.15,79.66 C24.88,83.05 28.73,87 32.87,88.5 C33.62,88.78 34.47,88.97 35.32,89.16 C36.92,89.44 38.61,89.63 40.21,89.35 C41.15,89.16 42.19,89.07 43.13,88.79 C45.01,88.32 46.8,87.66 48.59,87 C56.11,83.99 62.23,79.57 66.27,72.42 C67.96,69.32 69.37,66.02 70.69,62.73 C70.78,62.54 70.88,62.35 70.88,62.17 C72.86,56.71 74.17,50.98 75.49,45.33 C76.15,42.6 76.9,39.78 77.28,36.96 C77.55,35.92 77.92,34.7 77.64,33.57 Z" fill="#429ADF"/>
  <path d="M23.09,40.53 C24.78,37.43 28.83,34.98 32.4,35.45 C32.96,35.54 33.62,35.64 34.19,35.92 C37.76,37.42 39.93,40.91 39.08,44.48 C38.89,45.23 38.42,45.33 37.86,44.86 C35.88,43.17 34.29,41.85 31.65,41.19 C29.49,40.63 27.04,40.91 24.97,41.47 C24.5,41.56 23.75,42.03 23.28,41.85 C22.61,41.57 22.9,40.91 23.09,40.53 Z" fill="#193D51"/>
  <path d="M62.21,64.9 C61.18,66.5 59.76,67.91 58.35,69.23 C57.97,69.51 57.69,69.89 57.32,70.17 C51.68,74.87 44.06,77.22 36.81,75.44 C34.83,74.97 32.67,73.94 31.07,72.71 C29.85,71.77 28.62,70.55 27.59,69.32 C25.71,67.06 24.3,64.43 23.36,61.7 C22.89,60.29 22.61,58.97 22.42,57.47 C22.42,57 21.76,52.01 23.27,52.67 C23.65,52.86 23.93,53.14 24.21,53.42 C24.49,53.8 24.68,54.17 24.96,54.45 C25.62,55.3 26.28,56.14 27.03,56.9 C29.38,59.63 32.3,61.79 35.59,63.3 C37.85,64.33 40.29,64.9 42.74,65.09 C44.15,65.18 45.47,65.28 46.88,65.18 C51.96,64.9 57.13,63.39 61.74,61.42 C62.12,61.23 62.59,60.95 63.06,60.95 C64.66,61.04 62.5,64.52 62.21,64.9 Z" fill="#193D51"/>
  <path d="M67.58,51.16 C67.58,51.63 67.39,52.29 66.83,52.19 C66.36,52.1 65.98,51.25 65.7,50.97 C64.38,49.28 61.84,47.4 59.3,46.83 C56.29,46.08 54.03,47.39 51.02,47.68 C50.17,47.77 49.7,47.4 50.08,46.65 C51.68,43.17 55.91,40.44 60.33,41.19 C61.08,41.28 61.74,41.47 62.4,41.75 C66.26,43.36 67.86,47.59 67.58,51.16 Z" fill="#193D51"/>
  <path d="M91.84,63.86 C96.07,66.59 101.53,67.34 106.42,67.06 C107.83,66.97 108.68,67.15 108.3,68.75 C107.55,72.04 104.44,73.92 101.43,74.58 C100.68,74.77 99.93,74.77 99.17,74.77 C97.76,74.68 96.35,74.11 95.13,73.27 C92.5,71.48 90.52,68.38 89.96,65.27 C89.68,63.67 90.25,62.83 91.84,63.86 Z" fill="#9B7515"/>
  <path d="M65.22,80.79 C64,79.57 64.66,79 65.98,78.25 C70.49,75.9 75.01,72.32 77.36,67.62 C78.21,65.83 79.15,66.21 79.81,67.9 C80.94,71 80.84,74.77 79.43,77.78 C78.77,79.19 77.83,80.41 76.61,81.35 C75.95,81.82 75.29,82.1 74.54,82.38 C71.43,83.33 67.58,83.24 65.22,80.79 Z" fill="#9B7515"/>
  <path d="M110,96.41 C109.62,96.41 109.06,96.03 108.59,95.75 C108.12,95.47 107.65,95.09 107.37,94.9 C106.24,94.34 104.92,93.77 103.7,93.4 C99.94,92.18 95.8,92.18 92.13,93.4 C89.5,94.25 86.96,95.85 84.89,97.73 C82.63,99.89 80.94,102.53 78.78,104.78 C78.5,105.06 78.22,105.34 77.93,105.53 C77.37,105.81 76.8,105.44 76.61,104.87 C75.67,100.92 78.3,95.37 80.28,91.98 C82.54,88.22 85.83,85.21 90.06,83.98 C92.13,83.32 94.39,83.32 96.55,83.6 C102.85,84.54 109.34,89.53 110.57,95.26 C110.56,95.75 110.47,96.5 110,96.41 Z" fill="#9B7515"/>
</svg>
